X: 36535
T: Set Américain
R: reel
M: 4/4
K: Bminor
AB/c/|:dAFA DAFA|EAEA EABc|dAFA DAFA|dAdf ed AB/c/|
dAFA DAFA|EAEA DABc|dcdf ed AB/c/|1 dfec d2 AB/c/:|2 dfec d2 c2||
|:B3 c dcde|fefg fedc|BABc dcBA|GFGA G2 F2|
BFBc dcde|fefg fedc|BABc dcBA|1 Bbfd B2 dc:|2 Bbfd B2 AB/c/||

